; generated by PrusaSlicer 2.7.2 on 2025-12-17 at 02:08:06 UTC

; 

; external perimeters extrusion width = 0.45mm
; perimeters extrusion width = 0.45mm
; infill extrusion width = 0.45mm
; solid infill extrusion width = 0.45mm
; top infill extrusion width = 0.40mm
; first layer extrusion width = 0.70mm

;TYPE:Custom
G28 ; home all axes
 M117 Purge extruder
 G92 E0 ; reset extruder
 M109 S210 ; wait for the nozzle to heat up
 M190 S60 ; wait for the bed to heat up
 G1 Z1.0 F3000 ; move z up little to prevent scratching of surface
 G1 X2 Y20 Z0.3 F5000.0 ; move to start-line position
 G1 X2 Y200.0 Z0.3 F1500.0 E15 ; draw 1st line
 G1 X2 Y200.0 Z0.4 F5000.0 ; move to side a little
 G1 X2 Y20 Z0.4 F1500.0 E30 ; draw 2nd line
 G92 E0 ; reset extruder
 G1 Z1.0 F3000 ; move z up little to prevent scratching of surface
G21 ; set units to millimeters
G90 ; use absolute coordinates
M82 ; use absolute distances for extrusion
G92 E0
; Filament gcode
M107
;LAYER_CHANGE
;Z:0.35
;HEIGHT:0.35
G1 E-2 F2400
G1 Z.35 F7800
G1 X84.472 Y63.205
G1 E0 F2400
;TYPE:Skirt/Brim
;WIDTH:0.7
G1 F1800
G1 X86.342 Y61.877 E.20855
G1 X89.183 Y61.237 E.47335
G1 X105.554 Y61.237 E1.96196
G1 X107.813 Y61.634 E2.17052
G1 X109.801 Y62.778 E2.37908
G1 X110.998 Y64.086 E2.5403
G1 X125.686 Y85.261 E4.8836
G1 X126.251 Y86.246 E4.98685
G1 X127.041 Y87.972 E5.15945
G1 X137.91 Y115.254 E7.82981
G1 X138.41 Y117.003 E7.99522
G1 X141.09 Y131.109 E9.30082
G1 X141.206 Y132.346 E9.41379
G1 X141.207 Y150.037 E11.02243
G1 X140.81 Y152.296 E11.23099
G1 X140.176 Y153.586 E11.36169
G1 X139.523 Y154.485 E11.46272
G1 X137.828 Y156.03 E11.67127
G1 X134.583 Y157.052 E11.98062
G1 X97.772 Y158.728 E15.3313
G1 X88.531 Y158.735 E16.17158
G1 X86.272 Y158.338 E16.38014
G1 X83.847 Y156.794 E16.64155
G1 X83.672 Y156.619 E16.66405
G1 X81.981 Y153.738 E16.96781
G1 X81.072 Y150.523 E17.27161
G1 X80.823 Y148.771 E17.43252
G1 X80.618 Y121.878 E19.87796
G1 X80.618 Y72.073 E24.40671
G1 X81.226 Y69.301 E24.66476
G1 X83.166 Y65.09 E25.08635
G1 X84.438 Y63.254 E25.28945
G1 E23.28945 F2400
G92 E0
G1 X84.438 Y63.254 F7800
G1 X118.749 Y133.658
G1 E2 F2400
;TYPE:Perimeter
;WIDTH:0.665879
G1 F1800
G1 X118.63 Y133.395 E2.02482
G1 X118.732 Y133.067 E2.05435
G1 X132.107 Y133.067 E3.20412
;WIDTH:0.693311
G1 X132.503 Y133.05 E3.23978
;WIDTH:0.7
G1 X132.762 Y132.924 E3.26597
G1 X133.607 Y132.924 E3.34281
G1 X133.622 Y134.578 E3.49321
;WIDTH:0.668531
G1 X133.622 Y141.611 E4.10051
;WIDTH:0.677762
G1 X133.618 Y141.823 E4.1191
;WIDTH:0.726445
G1 X133.594 Y142.078 E4.14338
;WIDTH:0.775129
G1 X133.569 Y142.332 E4.16938
G1 X133.587 Y142.572 E4.1939
;WIDTH:0.739596
G1 X133.605 Y142.812 E4.21717
;WIDTH:0.704063
G1 X133.622 Y143.053 E4.23928
;WIDTH:0.668531
G1 X133.622 Y148.37 E4.6984
;WIDTH:0.67776
G1 X133.618 Y148.582 E4.71699
;WIDTH:0.724275
G1 X133.595 Y149.003 E4.75682
;WIDTH:0.770791
G1 X133.571 Y149.423 E4.79941
G1 X132.963 Y149.423 E4.86096
G1 X132.919 Y149.274 E4.87669
G1 X132.746 Y149.09 E4.90226
G1 X132.93 Y148.89 E4.92977
G1 X132.963 Y148.716 E4.9477
;WIDTH:0.736703
G1 X132.996 Y148.543 E4.96466
;WIDTH:0.702616
G1 X133.029 Y148.37 E4.98074
;WIDTH:0.668531
G1 X133.029 Y143.053 E5.43986
;WIDTH:0.704063
G1 X132.995 Y142.876 E5.45636
;WIDTH:0.739596
G1 X132.96 Y142.699 E5.47381
;WIDTH:0.775129
G1 X132.925 Y142.522 E5.49219
G1 X132.75 Y142.332 E5.5185
G1 X132.925 Y142.141 E5.54489
G1 X132.96 Y141.965 E5.56317
;WIDTH:0.739596
G1 X132.995 Y141.788 E5.58062
;WIDTH:0.704063
G1 X133.029 Y141.611 E5.59712
;WIDTH:0.668531
G1 X133.029 Y134.578 E6.20442
;WIDTH:0.7
G1 X132.719 Y133.868 E6.27487
G1 X132.46 Y133.713 E6.30232
;WIDTH:0.693311
G1 X132.107 Y133.658 E6.33446
;WIDTH:0.665879
G1 X118.809 Y133.658 E7.47762
G1 E5.47762 F2400
G92 E0
G1 X118.809 Y133.658 F7800
G1 X133.098 Y133.412
G1 E2 F2400
;WIDTH:0.524207
G1 F1800
G1 X133.042 Y133.412 E2.00366
G1 X133.014 Y133.461 E2.00735
G1 X133.042 Y133.51 E2.01104
G1 X133.098 Y133.51 E2.0147
G1 X133.126 Y133.461 E2.01839
G1 E.01839 F2400
G92 E0
G1 X133.126 Y133.461 F7800
G1 X106.588 Y148.685
G1 E2 F2400
;WIDTH:0.735859
G1 F1800
G1 X104.075 Y148.685 E2.24162
G1 X104.092 Y148.01 E2.30654
G1 X104.296 Y148.024 E2.3262
G1 X106.282 Y148.024 E2.51715
G1 X106.316 Y148.261 E2.54017
G1 X106.555 Y148.634 E2.58276
G1 E.58276 F2400
G92 E0
G1 X106.555 Y148.634 F7800
G1 X117.415 Y144.282
G1 E2 F2400
;WIDTH:0.674739
G1 F1800
G1 X117.474 Y144.395 E2.01112
G1 X110.446 Y148.905 E2.73974
G1 X110.055 Y149.04 E2.77583
;WIDTH:0.645903
G1 X109.747 Y149.138 E2.80268
G1 X109.317 Y149.239 E2.83937
;WIDTH:0.674739
G1 X108.887 Y149.34 E2.87791
G1 X107.832 Y149.34 E2.96996
;WIDTH:0.7
G1 X103.394 Y149.328 E3.37351
G1 X103.374 Y149.219 E3.38359
G1 X103.432 Y148.781 E3.42376
G1 X103.432 Y148.354 E3.46259
G1 X103.462 Y147.816 E3.51159
G1 X103.462 Y147.13 E3.57397
G1 X103.439 Y146.864 E3.59825
;WIDTH:0.654931
G1 X103.417 Y146.598 E3.62077
G1 X103.51 Y146.837 E3.64241
;WIDTH:0.7
G1 X103.603 Y147.075 E3.66564
G1 X104.061 Y147.351 E3.71426
G1 X104.296 Y147.381 E3.7358
G1 X106.46 Y147.381 E3.93257
G1 X106.895 Y147.25 E3.97388
G1 X106.895 Y147.774 E4.02153
G1 X106.933 Y148.08 E4.04957
G1 X107.217 Y148.523 E4.09742
G1 X107.832 Y148.741 E4.15675
;WIDTH:0.674738
G1 X108.848 Y148.741 E4.2454
G1 X109.192 Y148.703 E4.2756
;WIDTH:0.632742
G1 X109.686 Y148.595 E4.31663
;WIDTH:0.645172
G1 X109.904 Y148.498 E4.33642
;WIDTH:0.674739
G1 X110.123 Y148.4 E4.35735
G1 X117.103 Y143.92 E5.08103
G1 X117.17 Y144.026 E5.09197
G1 X117.373 Y144.238 E5.11758
G1 E3.11758 F2400
G92 E0
G1 X117.373 Y144.238 F7800
G1 X132.42 Y134.727
G1 E2 F2400
;TYPE:External perimeter
;WIDTH:0.7
G1 F1800
G1 X132.42 Y141.611 E2.62596
G1 X132.37 Y141.781 E2.64207
;WIDTH:0.74793
G1 X132.239 Y141.876 E2.65791
;WIDTH:0.79586
G1 X132.107 Y141.971 E2.67497
G1 X121.181 Y141.971 E3.82087
G1 X121.163 Y142.219 E3.84695
G1 X121.078 Y142.251 E3.85648
;WIDTH:0.747112
G1 X120.993 Y142.283 E3.86536
;WIDTH:0.698363
G1 X120.908 Y142.315 E3.8736
;WIDTH:0.649615
G1 X120.823 Y142.347 E3.88119
;WIDTH:0.600866
G1 X120.739 Y142.379 E3.88807
;WIDTH:0.552118
G1 X120.654 Y142.411 E3.89437
;WIDTH:0.503369
G1 X120.569 Y142.443 E3.90003
;WIDTH:0.454621
G1 X118.109 Y143.659 E4.05157
;WIDTH:0.503696
G1 X118.056 Y143.691 E4.05543
;WIDTH:0.552772
G1 X118.003 Y143.724 E4.05977
;WIDTH:0.601848
G1 X117.95 Y143.756 E4.06452
;WIDTH:0.650924
G1 X117.897 Y143.789 E4.06975
;WIDTH:0.7
G1 X117.844 Y143.821 E4.07538
G1 X117.685 Y143.695 E4.09383
G1 X117.287 Y143.075 E4.16082
G1 X109.622 Y147.994 E4.98897
G1 X109.079 Y148.123 E5.03972
G1 X107.832 Y148.128 E5.15311
G1 X107.627 Y148.052 E5.17299
G1 X107.52 Y147.816 E5.19655
G1 X107.52 Y147.109 E5.26084
;WIDTH:0.745238
G1 X107.5 Y146.444 E5.32571
;WIDTH:0.740199
G1 X107.5 Y142.444 E5.71283
;WIDTH:0.771348
G1 X107.546 Y142.246 E5.73342
G1 X108.495 Y140.913 E5.8992
;WIDTH:0.73175
G1 X108.606 Y140.752 E5.91789
G1 X108.628 Y140.327 E5.95855
;WIDTH:0.689445
G1 X108.628 Y133.776 E6.54417
;WIDTH:0.718914
G1 X108.642 Y133.68 E6.55326
;WIDTH:0.748384
G1 X108.657 Y133.585 E6.56268
G1 X108.703 Y133.585 E6.56719
;WIDTH:0.6996
G1 X108.75 Y133.585 E6.57146
;WIDTH:0.650817
G1 X108.796 Y133.585 E6.57531
;WIDTH:0.602034
G1 X108.842 Y133.585 E6.57884
;WIDTH:0.553251
G1 X108.888 Y133.585 E6.58204
;WIDTH:0.504468
G1 X108.935 Y133.585 E6.58498
;WIDTH:0.455685
G1 X117.801 Y133.585 E7.07597
;WIDTH:0.504548
G1 X117.853 Y133.588 E7.07922
;WIDTH:0.553411
G1 X117.904 Y133.591 E7.08278
;WIDTH:0.602274
G1 X117.956 Y133.594 E7.08678
;WIDTH:0.651137
G1 X118.008 Y133.597 E7.09115
;WIDTH:0.7
G1 X118.059 Y133.6 E7.0958
G1 X118.114 Y133.775 E7.11248
G1 X118.114 Y133.899 E7.12376
G1 X118.48 Y134.266 E7.17089
G1 X132.107 Y134.266 E8.40999
G1 X132.311 Y134.341 E8.42975
G1 X132.42 Y134.578 E8.45347
G1 X132.42 Y134.667 E8.46156
G1 X132.42 Y135.067 F7800
G1 E6.46156 F2400
G92 E0
G1 X96.052 Y132.167 F7800
G1 E2 F2400
;TYPE:Perimeter
G1 F1800
G1 X96.067 Y132.716 E2.04994
G1 X96.046 Y133.222 E2.09599
G1 X96.046 Y147.988 E3.43866
G1 X96.077 Y149.092 E3.53909
G1 X96.046 Y149.542 E3.58011
G1 X96.046 Y150.51 E3.66813
G1 X94.132 Y150.51 E3.84217
G1 X94.133 Y148.846 E3.99348
G1 X94.046 Y148.328 E4.04124
G1 X93.831 Y147.921 E4.08309
G1 X93.451 Y147.554 E4.13113
G1 X93.075 Y147.366 E4.16936
G1 X92.933 Y147.38 E4.18233
;WIDTH:0.655055
G1 X92.791 Y147.393 E4.19436
;WIDTH:0.61011
G1 X92.649 Y147.407 E4.20547
;WIDTH:0.565165
G1 X92.506 Y147.421 E4.21572
;WIDTH:0.52022
G1 X92.364 Y147.434 E4.22496
;WIDTH:0.475275
G1 X92.364 Y146.995 E4.25052
G1 X92.571 Y146.995 E4.26257
;WIDTH:0.520214
G1 X92.672 Y147.001 E4.26912
;WIDTH:0.56516
G1 X92.773 Y147.007 E4.27633
;WIDTH:0.610107
G1 X92.873 Y147.012 E4.28412
;WIDTH:0.655053
G1 X92.974 Y147.018 E4.29266
;WIDTH:0.7
G1 X93.075 Y147.024 E4.30186
G1 X93.451 Y146.836 E4.34009
G1 X93.831 Y146.469 E4.38813
G1 X94.052 Y146.043 E4.43177
G1 X94.133 Y145.545 E4.47765
G1 X94.132 Y143.368 E4.6756
G1 X94.047 Y142.859 E4.72252
G1 X93.817 Y142.427 E4.76702
G1 X93.268 Y141.927 E4.83454
G1 X92.895 Y141.502 E4.88596
G1 X92.588 Y141.314 E4.91869
G1 X92.292 Y141.21 E4.94722
G1 X91.928 Y141.167 E4.98055
G1 X91.007 Y141.167 E5.0643
G1 X90.37 Y141.302 E5.12351
G1 X89.956 Y141.655 E5.17298
G1 X89.956 Y131.94 E6.05636
G1 X90.442 Y131.319 E6.12806
G1 X90.904 Y131.319 E6.17007
G1 X91.359 Y131.271 E6.21167
G1 X91.74 Y131.319 E6.24659
G1 X95.56 Y131.319 E6.59394
G1 X96.046 Y131.94 E6.66564
G1 X96.051 Y132.107 E6.68083
G1 X96.051 Y132.107 F7800
G1 X96.675 Y132.212
G1 F1800
G1 X96.678 Y132.576 E6.71393
G1 X96.755 Y132.841 E6.73902
G1 X96.699 Y132.995 E6.75392
G1 X96.671 Y133.222 E6.77472
G1 X96.671 Y147.988 E8.11739
G1 X96.682 Y148.922 E8.20232
G1 X96.76 Y149.162 E8.22527
G1 X96.711 Y149.27 E8.23605
G1 X96.671 Y149.542 E8.26105
G1 X96.671 Y151.135 E8.4059
G1 X93.325 Y151.135 E8.71015
G1 X93.507 Y150.918 E8.7359
G1 X93.509 Y148.846 E8.92431
G1 X93.456 Y148.535 E8.953
G1 X93.241 Y148.189 E8.99004
G1 X92.873 Y147.958 E9.02955
G1 X92.571 Y147.908 E9.05738
G1 X92.225 Y147.974 E9.08941
G1 X91.852 Y148.001 E9.12342
G1 X91.852 Y146.407 E9.26836
G1 X92.294 Y146.482 E9.30913
G1 X92.873 Y146.432 E9.36197
G1 X93.241 Y146.201 E9.40148
G1 X93.46 Y145.844 E9.43956
G1 X93.509 Y145.545 E9.46711
G1 X93.507 Y143.368 E9.66506
G1 X93.456 Y143.063 E9.69318
G1 X93.318 Y142.804 E9.71987
G1 X93.1 Y142.596 E9.74727
G1 X92.815 Y142.481 E9.77522
G1 X92.732 Y142.248 E9.79771
G1 X92.508 Y141.993 E9.82857
G1 X92.324 Y141.88 E9.8482
G1 X91.928 Y141.792 E9.88509
G1 X91.007 Y141.792 E9.96884
G1 X90.625 Y141.873 E10.00435
G1 X90.222 Y142.216 E10.05247
G1 X90.157 Y142.434 E10.07316
G1 X89.616 Y142.436 E10.12235
G1 X89.331 Y142.532 E10.1497
G1 X89.331 Y131.725 E11.13238
G1 X90.137 Y130.694 E11.25138
G1 X91.099 Y130.686 E11.33886
G1 X91.359 Y130.608 E11.36354
G1 X91.505 Y130.664 E11.37776
G1 X91.74 Y130.694 E11.3993
G1 X95.865 Y130.694 E11.77438
G1 X96.671 Y131.725 E11.89338
G1 X96.675 Y132.152 E11.93221
G1 E9.93221 F2400
G92 E0
G1 X96.675 Y132.152 F7800
G1 X100.896 Y120.279
G1 E2 F2400
G1 F1800
G1 X100.896 Y118.97 E2.11903
G1 X101.372 Y118.841 E2.16387
G1 X101.769 Y118.671 E2.20314
G1 X102.16 Y118.436 E2.24462
G1 X102.486 Y118.174 E2.28265
G1 X102.847 Y117.648 E2.34066
G1 X103.033 Y117.198 E2.38494
G1 X103.148 Y116.628 E2.43781
;WIDTH:0.658921
G1 X103.147 Y116.448 E2.4531
;WIDTH:0.614502
G1 X103.146 Y116.267 E2.46731
;WIDTH:0.607229
G1 X103.143 Y115.776 E2.50533
;WIDTH:0.644375
G1 X103.141 Y115.285 E2.546
;WIDTH:0.672187
G1 X103.086 Y114.997 E2.57147
;WIDTH:0.7
G1 X103.031 Y114.708 E2.59822
G1 X102.858 Y114.279 E2.64028
G1 X102.498 Y113.739 E2.69929
G1 X102.317 Y113.572 E2.72168
G1 X101.684 Y113.109 E2.79299
G1 X100.896 Y112.705 E2.87351
G1 X100.896 Y110.167 E3.10429
G1 X101.545 Y110.099 E3.16363
G1 X101.848 Y109.971 E3.19354
G1 X102.043 Y109.843 E3.21475
G1 X102.401 Y109.456 E3.26269
G1 X102.577 Y109.088 E3.29978
G1 X102.653 Y108.605 E3.34424
G1 X102.653 Y95.667 E4.52069
G1 X102.605 Y95.281 E4.55606
G1 X102.483 Y94.958 E4.58746
G1 X102.332 Y94.718 E4.61324
G1 X101.924 Y94.345 E4.66351
G1 X101.415 Y94.139 E4.71344
G1 X100.896 Y94.094 E4.76081
G1 X100.861 Y93.331 E4.83026
G1 X100.89 Y93.037 E4.85712
G1 X100.896 Y92.535 E4.90277
G1 X101.372 Y92.509 E4.94612
G1 X101.924 Y92.294 E4.99999
G1 X102.185 Y92.087 E5.03028
G1 X102.483 Y91.682 E5.076
G1 X102.605 Y91.358 E5.10748
G1 X102.653 Y90.972 E5.14285
G1 X102.653 Y79.184 E6.21473
G1 X102.558 Y78.648 E6.26423
G1 X102.401 Y78.343 E6.29542
G1 X102.497 Y78.182 E6.31246
G1 X102.628 Y77.782 E6.35073
G1 X102.653 Y77.501 E6.37638
G1 X102.653 Y73.597 E6.73137
G1 X102.558 Y73.061 E6.78087
G1 X102.401 Y72.756 E6.81206
G1 X102.558 Y72.45 E6.84333
G1 X102.709 Y71.802 E6.90383
;WIDTH:0.742525
G1 X102.75 Y71.723 E6.91247
;WIDTH:0.78505
G1 X102.791 Y71.645 E6.92157
;WIDTH:0.827575
G1 X102.833 Y71.567 E6.93127
;WIDTH:0.8701
G1 X102.874 Y71.488 E6.94157
;WIDTH:0.912625
G1 X102.915 Y71.41 E6.95231
;WIDTH:0.955151
G1 X102.957 Y71.332 E6.96365
G1 X102.959 Y71.185 E6.98248
;WIDTH:0.947048
G1 X102.959 Y69.585 E7.18549
G1 X103.831 Y69.585 E7.29613
G1 X103.831 Y71.185 E7.49914
;WIDTH:0.955151
G1 X103.833 Y71.332 E7.51797
G1 X103.862 Y71.379 E7.52504
;WIDTH:0.912018
G1 X103.891 Y71.427 E7.53187
;WIDTH:0.868885
G1 X103.92 Y71.474 E7.53825
;WIDTH:0.825752
G1 X103.949 Y71.522 E7.54438
;WIDTH:0.782619
G1 X104.043 Y71.755 E7.57025
;WIDTH:0.741309
G1 X104.137 Y71.988 E7.59461
;WIDTH:0.7
G1 X104.23 Y72.45 E7.63746
G1 X104.387 Y72.756 E7.66873
G1 X104.23 Y73.062 E7.7
G1 X104.135 Y73.598 E7.7495
G1 X104.141 Y77.638 E8.11686
G1 X104.23 Y78.037 E8.15403
G1 X104.387 Y78.343 E8.1853
G1 X104.23 Y78.649 E8.21657
G1 X104.135 Y79.184 E8.26598
G1 X104.135 Y90.972 E9.33786
G1 X104.184 Y91.358 E9.37324
G1 X104.306 Y91.682 E9.40472
G1 X104.456 Y91.921 E9.43038
G1 X104.858 Y92.29 E9.48
G1 X105.257 Y92.471 E9.51984
G1 X105.892 Y92.535 E9.57787
G1 X105.892 Y94.094 E9.71963
G1 X105.257 Y94.168 E9.77776
G1 X104.858 Y94.35 E9.81764
G1 X104.603 Y94.552 E9.84722
G1 X104.306 Y94.958 E9.89296
G1 X104.184 Y95.281 E9.92436
G1 X104.135 Y95.667 E9.95974
G1 X104.135 Y108.605 E11.13619
G1 X104.212 Y109.088 E11.18066
G1 X104.388 Y109.456 E11.21775
G1 X104.579 Y109.695 E11.24557
G1 X104.785 Y109.872 E11.27027
G1 X105.244 Y110.099 E11.31683
G1 X105.892 Y110.167 E11.37608
G1 X105.892 Y112.706 E11.60695
G1 X105.107 Y113.109 E11.68719
G1 X104.764 Y113.342 E11.72489
G1 X104.29 Y113.739 E11.78111
G1 X103.93 Y114.28 E11.8402
G1 X103.757 Y114.708 E11.88218
G1 X103.702 Y114.997 E11.90893
;WIDTH:0.672187
G1 X103.647 Y115.285 E11.9344
;WIDTH:0.644375
G1 X103.644 Y115.464 E11.94923
;WIDTH:0.607477
G1 X103.642 Y115.643 E11.9631
;WIDTH:0.61475
G1 X103.641 Y116.135 E12.00173
;WIDTH:0.658921
G1 X103.64 Y116.628 E12.04361
;WIDTH:0.7
G1 X103.836 Y117.444 E12.11992
G1 X104.203 Y118.058 E12.18496
G1 X104.53 Y118.371 E12.22612
G1 X105.023 Y118.672 E12.27864
G1 X105.368 Y118.826 E12.31299
G1 X105.892 Y118.969 E12.36238
G1 X105.892 Y120.279 E12.4815
G1 X103.92 Y120.279 E12.66081
G1 X103.54 Y120.327 E12.69564
G1 X103.159 Y120.279 E12.73056
G1 X100.956 Y120.279 E12.93088
G1 X100.956 Y120.279 F7800
G1 X100.212 Y120.903
G1 F1800
G1 X100.271 Y120.673 E12.95247
G1 X100.271 Y118.478 E13.15206
G1 X101.208 Y118.238 E13.24001
G1 X101.447 Y118.136 E13.26364
G1 X102.033 Y117.743 E13.3278
G1 X102.313 Y117.323 E13.3737
G1 X102.425 Y117.052 E13.40036
G1 X102.586 Y116.267 E13.47323
G1 X102.56 Y115.424 E13.54992
G1 X102.378 Y114.714 E13.61657
G1 X102.162 Y114.328 E13.65679
G1 X101.93 Y114.062 E13.68888
G1 X101.398 Y113.665 E13.74924
G1 X100.271 Y113.108 E13.86355
G1 X100.271 Y109.542 E14.1878
G1 X101.091 Y109.542 E14.26236
G1 X101.363 Y109.502 E14.28736
G1 X101.545 Y109.425 E14.30533
G1 X101.762 Y109.259 E14.33017
G1 X101.982 Y108.894 E14.36892
G1 X102.028 Y108.605 E14.39553
G1 X102.028 Y95.667 E15.57198
G1 X101.999 Y95.436 E15.59315
G1 X101.836 Y95.098 E15.62727
G1 X101.591 Y94.874 E15.65746
G1 X101.343 Y94.764 E15.68213
G1 X101.133 Y94.731 E15.70146
G1 X100.271 Y94.692 E15.77992
G1 X100.268 Y93.589 E15.88022
G1 X100.182 Y93.28 E15.90939
G1 X100.225 Y93.188 E15.91862
G1 X100.271 Y92.899 E15.94523
G1 X100.271 Y91.91 E16.03516
G1 X101.259 Y91.894 E16.12501
